Sources/FrostedUI/Resources/Icons.xcassets/shieldCheckmark24.imageset/shield-checkmark-24.svg

<svg width="24" height="24" viewBox="0 0 24 24" fill="none" xmlns="http://www.w3.org/2000/svg" data-fui-icon="true">
  <path
    d="M11.1299 2.24951C11.6944 2.0614 12.3056 2.0614 12.8701 2.24951L19.1201 4.33252C20.2425 4.70689 20.9997 5.75764 21 6.94092V11.9116C21 14.6488 19.8167 16.6698 18.1416 18.2593C16.4947 19.822 14.3407 20.9974 12.3564 22.0679C12.1342 22.1878 11.8658 22.1878 11.6436 22.0679C9.6593 20.9974 7.50535 19.822 5.8584 18.2593C4.18335 16.6698 3 14.6488 3 11.9116V6.94092C3.00027 5.75767 3.75741 4.70691 4.87988 4.33252L11.1299 2.24951ZM12.3955 3.67236C12.1389 3.58686 11.8611 3.58686 11.6045 3.67236L5.35449 5.75537C4.84438 5.9255 4.50027 6.40321 4.5 6.94092V11.9116C4.5 14.1466 5.44194 15.7958 6.8916 17.1714C8.28224 18.4908 10.1099 19.5302 12 20.5542C13.8901 19.5302 15.7178 18.4908 17.1084 17.1714C18.5581 15.7958 19.5 14.1466 19.5 11.9116V6.94092C19.4997 6.40321 19.1556 5.9255 18.6455 5.75537L12.3955 3.67236ZM14.2197 8.96924C14.5126 8.67669 14.9874 8.67669 15.2803 8.96924C15.5731 9.26204 15.5729 9.73687 15.2803 10.0298L11.5303 13.7798C11.2374 14.0727 10.7626 14.0727 10.4697 13.7798L8.71973 12.0298C8.42708 11.7369 8.42692 11.262 8.71973 10.9692C9.01256 10.6767 9.48744 10.6767 9.78027 10.9692L11 12.189L14.2197 8.96924Z"
    fill="currentColor"
  />
</svg>

<svg xmlns="http://www.w3.org/2000/svg" width="24" height="24" fill="none" data-fui-icon="true" viewBox="0 0 24 24"><path fill="currentColor" d="M11.13 2.25a2.75 2.75 0 0 1 1.74 0l6.25 2.083A2.75 2.75 0 0 1 21 6.94v4.97c0 2.738-1.183 4.759-2.858 6.348-1.647 1.563-3.801 2.738-5.786 3.809a.75.75 0 0 1-.712 0c-1.985-1.07-4.139-2.246-5.786-3.809C4.183 16.67 3 14.65 3 11.912V6.94a2.75 2.75 0 0 1 1.88-2.608zm1.265 1.422a1.25 1.25 0 0 0-.79 0l-6.25 2.083A1.25 1.25 0 0 0 4.5 6.941v4.97c0 2.236.942 3.885 2.392 5.26 1.39 1.32 3.218 2.36 5.108 3.383 1.89-1.024 3.718-2.063 5.108-3.383 1.45-1.375 2.392-3.024 2.392-5.26v-4.97a1.25 1.25 0 0 0-.855-1.186zM14.22 8.97a.75.75 0 0 1 1.06 1.06l-3.75 3.75a.75.75 0 0 1-1.06 0l-1.75-1.75a.75.75 0 0 1 1.06-1.06L11 12.19z"/></svg>
